images_sukapura_svg/cmd/sc_colorsettings.svg

<svg viewBox="0 0 16 16" xmlns="http://www.w3.org/2000/svg"><path d="m15.794922 6.2480469-7.7890626 1.7558593 4.3496096 6.7050778a8 8 0 0 0 3.644531-6.708984 8 8 0 0 0 -.205078-1.7519531z" fill="#ff9500"/><path d="m8.0019531 0 .0019531 8 7.7910158-1.7539062a8 8 0 0 0 -7.7929689-6.2460938z" fill="#fc0"/><path d="m8 0a8 8 0 0 0 -7.79882812 6.2460938l7.79882812 1.7539062.0019531-8a8 8 0 0 0 -.0019531 0z" fill="#ff3b30"/><path d="m8.0058594 8.0039062-4.3632813 6.6972658a8 8 0 0 0 4.3574219 1.298828 8 8 0 0 0 4.355469-1.291016z" fill="#28cd41"/><path d="m.20117188 6.2460938a8 8 0 0 0 -.20117188 1.7539062 8 8 0 0 0 3.6425781 6.701172l4.3632813-6.6972658z" fill="#007aff"/></svg>

<?xml version="1.0" encoding="UTF-8" standalone="no"?>
<svg
   xmlns:dc="http://purl.org/dc/elements/1.1/"
   xmlns:cc="http://creativecommons.org/ns#"
   xmlns:rdf="http://www.w3.org/1999/02/22-rdf-syntax-ns#"
   xmlns:svg="http://www.w3.org/2000/svg"
   xmlns="http://www.w3.org/2000/svg"
   xmlns:sodipodi="http://sodipodi.sourceforge.net/DTD/sodipodi-0.dtd"
   xmlns:inkscape="http://www.inkscape.org/namespaces/inkscape"
   viewBox="0 0 16 16"
   version="1.1"
   id="svg8"
   sodipodi:docname="sc_colorsettings.svg"
   inkscape:version="0.92.3 (2405546, 2018-03-11)">
  <metadata
     id="metadata14">
    <rdf:RDF>
      <cc:Work
         rdf:about="">
        <dc:format>image/svg+xml</dc:format>
        <dc:type
           rdf:resource="http://purl.org/dc/dcmitype/StillImage" />
        <dc:title></dc:title>
      </cc:Work>
    </rdf:RDF>
  </metadata>
  <defs
     id="defs12" />
  <sodipodi:namedview
     pagecolor="#ffffff"
     bordercolor="#666666"
     borderopacity="1"
     objecttolerance="10"
     gridtolerance="10"
     guidetolerance="10"
     inkscape:pageopacity="0"
     inkscape:pageshadow="2"
     inkscape:window-width="1366"
     inkscape:window-height="692"
     id="namedview10"
     showgrid="true"
     inkscape:snap-global="true"
     inkscape:snap-grids="false"
     inkscape:zoom="5.6568543"
     inkscape:cx="-16.59188"
     inkscape:cy="9.6586701"
     inkscape:window-x="0"
     inkscape:window-y="0"
     inkscape:window-maximized="1"
     inkscape:current-layer="svg8">
    <inkscape:grid
       type="xygrid"
       id="grid834" />
  </sodipodi:namedview>
  <path
     style="fill:#ff9500;stroke:none;stroke-width:1px;stroke-linecap:butt;stroke-linejoin:miter;stroke-opacity:1;fill-opacity:1"
     d="M 15.794922 6.2480469 L 8.0058594 8.0039062 L 12.355469 14.708984 A 8 8 0 0 0 16 8 A 8 8 0 0 0 15.794922 6.2480469 z "
     id="path881" />
  <path
     style="fill:#ffcc00;stroke:none;stroke-width:1px;stroke-linecap:butt;stroke-linejoin:miter;stroke-opacity:1;fill-opacity:1"
     d="M 8.0019531 0 L 8.0039062 8 L 15.794922 6.2460938 A 8 8 0 0 0 8.0019531 0 z "
     id="path879" />
  <path
     style="fill:#ff3b30;stroke:none;stroke-width:1px;stroke-linecap:butt;stroke-linejoin:miter;stroke-opacity:1;fill-opacity:1"
     d="M 8 0 A 8 8 0 0 0 0.20117188 6.2460938 L 8 8 L 8.0019531 0 A 8 8 0 0 0 8 0 z "
     id="path859" />
  <path
     style="fill:#28cd41;stroke:none;stroke-width:1px;stroke-linecap:butt;stroke-linejoin:miter;stroke-opacity:1;fill-opacity:1"
     d="M 8.0058594 8.0039062 L 3.6425781 14.701172 A 8 8 0 0 0 8 16 A 8 8 0 0 0 12.355469 14.708984 L 8.0058594 8.0039062 z "
     id="path883" />
  <path
     style="fill:#007aff;stroke:none;stroke-width:1px;stroke-linecap:butt;stroke-linejoin:miter;stroke-opacity:1;fill-opacity:1"
     d="M 0.20117188 6.2460938 A 8 8 0 0 0 0 8 A 8 8 0 0 0 3.6425781 14.701172 L 8.0058594 8.0039062 L 0.20117188 6.2460938 z "
     id="path885" />
</svg>
